P3
10 10
255
103 255 255
103 255 255
103 255 255
128 128 128
128 128 128
128 128 128
255 255 255
255 255 255
255 255 255
255 255 255
103 255 255
103 255 255
103 255 255
103 255 255
128 128 128
255 255 255
255 255 255
255 255 255
255 255 255
255 255 255
103 255 255
103 255 255
103 255 255
103 255 255
128 128 128
255 255 255
255 255 255
255 255 255
255 255 255
255 255 255
103 255 255
103 255 255
103 255 255
103 255 255
128 128 128
255 255 255
255 255 255
255 255 255
255 255 255
255 255 255
103 255 255
103 255 255
103 255 255
103 255 255
128 128 128
255 255 255
255 255 255
255 255 255
255 255 255
255 255 255
103 255 255
103 255 255
103 255 255
103 255 255
128 128 128
255 255 255
255 255 255
255 255 255
255 255 255
255 255 255
103 255 255
103 255 255
103 255 255
103 255 255
128 128 128
128 128 128
255 255 255
255 255 255
255 255 255
255 255 255
103 255 255
103 255 255
103 255 255
103 255 255
128 128 128
128 128 128
255 255 255
255 255 255
255 255 255
255 255 255
103 255 255
103 255 255
103 255 255
128 128 128
103 255 55
255 255 255
255 255 255
255 255 255
255 255 255
255 255 255
128 128 128
103 255 255
103 255 255
128 128 128
128 128 128
128 128 128
128 128 128
255 255 255
255 255 255
255 255 255
